apps/app.mento.org/public/tokens/cUSD.svg

<svg width="40" height="40" viewBox="0 0 40 40" fill="none" xmlns="http://www.w3.org/2000/svg">
<g clip-path="url(#clip0_4004_57039)">
<path d="M20 40C31.0457 40 40 31.0457 40 20C40 8.95431 31.0457 0 20 0C8.95431 0 0 8.95431 0 20C0 31.0457 8.95431 40 20 40Z" fill="#23CC00"/>
<path d="M19.9279 33.4979C24.6271 33.4979 28.6071 30.4771 30.0935 26.3051H27.1687C25.8743 28.9907 23.0927 30.8123 19.9279 30.8123C15.4687 30.8123 11.8239 27.1683 11.8239 22.7083C11.8239 19.5435 13.6463 16.7619 16.3311 15.4675V12.5427C12.1591 14.0291 9.13831 18.0091 9.13831 22.7083C9.13831 28.6547 13.9815 33.4979 19.9279 33.4979ZM26.1135 20.3115V16.3795C27.4559 16.7155 28.5111 17.1467 28.5111 18.2979C28.5111 19.3531 27.5999 20.1203 26.1135 20.3115ZM24.2919 23.9555H26.2103V22.4691C29.0391 22.1331 30.8615 20.5027 30.8615 18.2971C30.8615 15.2283 28.4159 14.5571 26.1143 14.1251V10.0491C27.2175 10.1451 28.4159 10.4803 29.5191 11.0083V8.61073C28.4639 8.22673 27.3135 7.98753 26.2103 7.93953V6.50113H24.2919V7.93953C21.3671 8.27553 19.6887 9.90593 19.6887 11.9675C19.6887 15.0843 22.0863 15.8035 24.3879 16.2355V20.3115C22.9975 20.1195 21.5111 19.5443 19.7847 18.6331V21.1747C21.2711 21.8939 22.8055 22.3739 24.2919 22.4691V23.9555ZM24.3879 13.9339C23.0455 13.6459 22.0383 13.1667 22.0383 11.9675C22.0383 10.8643 22.9015 10.1931 24.3879 10.0491V13.9331V13.9339Z" fill="white"/>
</g>
<defs>
<clipPath id="clip0_4004_57039">
<rect width="40" height="40" fill="white"/>
</clipPath>
</defs>
</svg>

<svg xmlns="http://www.w3.org/2000/svg" width="40" height="40" fill="none" viewBox="0 0 40 40"><g clip-path="url(#a)"><path fill="#23CC00" d="M20 40c11.046 0 20-8.954 20-20S31.046 0 20 0 0 8.954 0 20s8.954 20 20 20"/><path fill="#fff" d="M19.928 33.498c4.7 0 8.68-3.02 10.165-7.193H27.17c-1.295 2.686-4.076 4.507-7.241 4.507-4.46 0-8.104-3.644-8.104-8.104 0-3.164 1.822-5.946 4.507-7.24v-2.925c-4.172 1.486-7.193 5.466-7.193 10.165 0 5.947 4.844 10.79 10.79 10.79m6.185-13.186v-3.933c1.343.336 2.398.768 2.398 1.919 0 1.055-.911 1.822-2.398 2.014m-1.821 3.643h1.918V22.47c2.83-.336 4.651-1.966 4.651-4.172 0-3.069-2.445-3.74-4.747-4.172V10.05c1.104.096 2.302.431 3.405.96v-2.4a11.3 11.3 0 0 0-3.309-.671V6.5h-1.918v1.44c-2.925.336-4.603 1.966-4.603 4.027 0 3.117 2.397 3.836 4.699 4.268v4.076c-1.39-.192-2.877-.767-4.603-1.678v2.542c1.486.719 3.02 1.199 4.507 1.294zm.096-10.021c-1.343-.288-2.35-.767-2.35-1.966 0-1.104.863-1.775 2.35-1.919z"/></g><defs><clipPath id="a"><path fill="#fff" d="M0 0h40v40H0z"/></clipPath></defs></svg>
